docs/img/icon1/crm_bg.svg

<svg width="1483" height="948" viewBox="0 0 1483 948" fill="none" xmlns="http://www.w3.org/2000/svg">
<path fill-rule="evenodd" clip-rule="evenodd" d="M159.174 0.0002443C149.413 0.0002443 141.5 7.75542 141.5 17.3219V43.0536C141.5 47.4719 137.919 51.0536 133.5 51.0536H24C10.7452 51.0536 0 61.7987 0 75.0536L0 924C0 937.255 10.7452 948 24 948H1459C1472.25 948 1483 937.255 1483 924V75.0536C1483 61.7988 1472.25 51.0536 1459 51.0536L538 51.0534C533.582 51.0534 530 47.4716 530 43.0534V17.3217C530 7.75518 522.087 0 512.326 0L159.174 0.0002443Z" fill="#0A7272"/>
</svg>

<svg width="1483" height="948" fill="none" xmlns="http://www.w3.org/2000/svg"><path fill-rule="evenodd" clip-rule="evenodd" d="M159.174 0C149.413 0 141.5 7.755 141.5 17.322v25.732a8 8 0 01-8 8H24c-13.255 0-24 10.745-24 24V924c0 13.255 10.745 24 24 24h1435c13.25 0 24-10.745 24-24V75.054c0-13.255-10.75-24-24-24H538a8 8 0 01-8-8V17.321C530 7.755 522.087 0 512.326 0H159.174z" fill="#0A7272"/></svg>
